ONMI/img/icons/googlePlay.svg

<svg width="50" height="55" viewBox="0 0 50 55" fill="none" xmlns="http://www.w3.org/2000/svg">
<path fill-rule="evenodd" clip-rule="evenodd" d="M2.60918 1.44198C4.67385 0.301142 7.11362 0.274533 9.19158 1.42535L34.937 15.6643L26.8077 23.8098L2.60918 1.44198ZM0.262207 6.90059C0.262207 5.70984 0.601528 4.58656 1.19368 3.60495L25.5183 26.3573L1.13047 51.0864C0.571588 50.125 0.262207 49.0254 0.262207 47.8717V6.90059ZM45.6768 21.9408L37.7655 17.7484L28.8755 26.2828L39.7704 35.9328L45.6802 32.8007C47.807 31.6688 49.0804 29.6393 49.0804 27.3691C49.077 25.0989 47.807 23.0694 45.6768 21.9408ZM3.29294 53.1968L27.6814 28.861L37.6412 38.0279L9.98145 53.2597C8.943 53.8324 7.80835 54.1171 6.68032 54.1171C5.51249 54.1171 4.35129 53.7993 3.29294 53.1968Z" fill="white"/>
</svg>

<svg width="50" height="55" fill="none" xmlns="http://www.w3.org/2000/svg"><path fill-rule="evenodd" clip-rule="evenodd" d="M2.61 1.442C4.673.302 7.113.275 9.191 1.425l25.745 14.24-8.13 8.145L2.61 1.442zM.261 6.901c0-1.191.34-2.314.932-3.296l24.324 22.752L1.13 51.087a6.378 6.378 0 01-.868-3.215V6.9zm45.415 15.04l-7.911-4.193-8.89 8.535 10.894 9.65 5.91-3.132c2.127-1.132 3.4-3.162 3.4-5.432-.003-2.27-1.273-4.3-3.403-5.428zM3.293 53.197L27.68 28.86l9.96 9.167L9.981 53.26a6.83 6.83 0 01-3.3.857 6.845 6.845 0 01-3.388-.92z" fill="#fff"/></svg>
